svg/u1f380.svg

<svg viewBox="0 0 128 128" xmlns="http://www.w3.org/2000/svg">
  <path d="M60.23,50.47c0,0-10.56,2.98-19.38,8.8c-7.26,4.78-13.83,12.04-13.83,12.04l1.88,17.76L34.1,93 l21.81-19.63c0,0,3.1-8.1,4.21-13.65C60.7,56.86,61,54.06,61,54.06L60.23,50.47z" fill="#AF0C1A"/>
  <path d="M69.19,52.69c0,0,2.21,8.35,3.02,11.66c0.92,3.74,2.69,9.82,2.69,9.82l21.69,15.42l8.2-16.05 c0,0-4.61-5.72-7.09-8.71c-2.48-2.99-16.57-12.72-16.57-12.72L69.19,52.69z" fill="#AF0C1A"/>
  <path d="M13.32,98.51c0,0,0.75-6.87,6.39-16.69s8.41-11.53,8.41-11.53s3.26-0.76,6.15-1.11 c3.12-0.38,5.72-0.09,5.72-0.09s-3.93,4.78-6.15,9.39s-3.59,8.97-1.96,9.82c1.62,0.85,3.43-5,6.92-10.33 c3.67-5.62,6.47-8.38,6.47-8.38s2.8,0.09,5.72,0.96c3.23,0.96,5.02,2.6,5.02,2.6s-5.76,15.49-8.92,24.46 c-3.16,8.97-7.72,20.87-8.83,21.3c-1.11,0.43-3.04-3.02-4.24-5.75c-1.2-2.73-5.29-17.25-5.55-16.99S13.32,98.51,13.32,98.51z" fill="#FF605E"/>
  <path d="M74.89,74.1c0,0,2.51-1.69,4.56-2.38c2.05-0.68,5.68-1.26,5.68-1.26s2.18,4.26,3.88,7.17 c1.71,2.9,4.49,8.88,6.28,8.02c1.79-0.85-0.51-6.89-1.84-9.56c-1.21-2.43-3.33-5.72-3.33-5.72s2.65-0.34,7.51,0.6 c4.87,0.94,7.17,2.56,7.17,2.56s4.5,6.68,6.92,10.76c3.22,5.44,7.26,14.68,7.26,14.68l-17.85,1.46l-8.97,19.64 c0,0-1.24,0.08-1.93-0.34c-0.68-0.43-3.91-9.3-5.66-14.5C81.82,97.02,74.89,74.1,74.89,74.1z" fill="#FF605E"/>
  <path d="M100.1,98.73c-0.69,0.64-7.36,17.21-7.56,17.7c-1.03,2.54-2.44,3.12-2.44,3.12s1.21,1.74,3.26,1.14 c1.58-0.46,9.1-18.27,9.1-18.27s13.59,0.13,15.57-0.73c2.22-0.96,0.92-2.77,0.92-2.77S101.02,97.87,100.1,98.73z" fill="#DC0D28"/>
  <path d="M13.35,98.13c0,0,4.02-0.73,7.72-1.71s8.44-2.37,8.44-2.37s3.74,10.22,4.86,13.65 c1.12,3.43,4.04,11.1,4.04,11.1s-1.27,1.37-3.1,0.24c-1.71-1.06-4.98-10.1-5.84-12.5c-1.1-3.04-2.53-7.55-2.53-7.55 s-3.88,1.29-7.11,1.88c-3.23,0.59-5.42,1.02-6.28,0.16C12.69,100.18,13.35,98.13,13.35,98.13z" fill="#DC0D28"/>
  <path d="M46.36,28.97l-18.55-4.76L14.7,34.87L9.26,60.87l2.97,5c0,0,3.22,2.46,12.28,0.44 c9.06-2.03,29.52-9.91,29.52-9.91s2.61,1.08,4.95,1.4s6.33-0.52,6.33-0.52s5.02,0.82,8.01,0.61c2.98-0.21,4.26-0.53,4.26-0.53 s9.81,5.22,19.61,7.99s17.37,3.4,19.08,3.2c2.66-0.32,3.94-4.8,3.94-4.8l-1.07-9.81l-14.28-30.7l-29.74,8.53l-1.81,2.03l-7.79-2.12 l-10.57,2.08l-1.33-1.56L46.36,28.97z" fill="#DC0D28"/>
  <path d="M54.59,33.37c0,0,1.18-3.66,10.07-3.66c8.29,0,9.41,3.28,9.41,3.28s1.08,7.2,0.1,13.44 c-0.87,5.58-3.96,11.41-3.96,11.41s-2.05,0.51-5.22,0.6c-2.99,0.08-6.17-0.67-6.17-0.67s-2.82-4.97-4.01-11.21 C53.67,40.52,54.59,33.37,54.59,33.37z" fill="#FF605E"/>
  <path d="M59.9,45.07c1.7,0.34,2.67-4.23,3.74-5.48c1.68-1.95,5.66-1.57,5.59-4.18 c-0.05-2.06-7.63-3.01-10.36,0.81C56.97,38.89,57.19,44.53,59.9,45.07z" fill="#FCC4BF"/>
  <path d="M75.11,31.77c0,0,1.13,1.38,2.13,3.86c0.74,1.82,1.54,4.48,1.54,4.48s3.68-3.21,6.83-4.95 c3.14-1.74,18.15-7.07,18.54,0.2c0.31,5.91-10.75,5.79-15.94,7.9c-3.65,1.48-8.62,4.28-8.62,4.28v6.02c0,0,2.4,2.56,8.02,3.03 c5.62,0.47,20.03,0.3,22.87,0.42c5.91,0.25,7.98,2.9,7.98,6.05c0,3.14-1.11,4.43-0.74,4.84c0.48,0.54,2.95-1.43,4.29-6.52 c1.34-5.09,2.37-14.6,1.97-22.75c-0.47-9.63-2.37-22.52-6.67-24.92s-16.84,0.8-24.2,3.95C80.73,22.96,75.11,31.77,75.11,31.77z" fill="#FF605E"/>
  <path d="M50.37,39.74c0,0,0.46-2.37,1.33-4.25c0.68-1.47,1.93-3.28,1.93-3.28s-2.36-6.15-11.05-11.14 s-26.87-8.89-32.66-6.69c-2.88,1.09-5.67,8.48-6.52,19.7c-0.73,9.74,0.23,21.4,3.3,27.15c2.31,4.33,8.17,7.55,9.95,5.77 c0.87-0.87-5.77-3.89,0.56-7.87c3.67-2.3,10.69-2.1,16.78-2.5c6.09-0.4,8.69-0.1,11.89-0.9c3.2-0.8,5.19-2,5.19-2s-0.75-2.5-0.9-3.7 c-0.21-1.64-0.34-2.98-0.34-2.98s-2.11-1.19-7.65-2.11c-5.43-0.91-14.35-0.71-14.48-6.69c-0.17-7.59,8.59-5.69,12.68-4 S49.87,39.24,50.37,39.74z" fill="#FF605E"/>
</svg>

<svg viewBox="0 0 128 128" xmlns="http://www.w3.org/2000/svg">
  <defs/>
  <path d="M60.23,50.47 C60.23,50.47 49.67,53.45 40.85,59.27 C33.59,64.05 27.02,71.31 27.02,71.31 L28.9,89.07 L34.1,93 L55.91,73.37 C55.91,73.37 59.01,65.27 60.12,59.72 C60.7,56.86 61,54.06 61,54.06 L60.23,50.47 Z" fill="#AF0C1A"/>
  <path d="M69.19,52.69 C69.19,52.69 71.4,61.04 72.21,64.35 C73.13,68.09 74.9,74.17 74.9,74.17 L96.59,89.59 L104.79,73.54 C104.79,73.54 100.18,67.82 97.7,64.83 C95.22,61.84 81.13,52.11 81.13,52.11 L69.19,52.69 Z" fill="#AF0C1A"/>
  <path d="M13.32,98.51 C13.32,98.51 14.07,91.64 19.71,81.82 C25.35,72 28.12,70.29 28.12,70.29 C28.12,70.29 31.38,69.53 34.27,69.18 C37.39,68.8 39.99,69.09 39.99,69.09 C39.99,69.09 36.06,73.87 33.84,78.48 C31.62,83.09 30.25,87.45 31.88,88.3 C33.5,89.15 35.31,83.3 38.8,77.97 C42.47,72.35 45.27,69.59 45.27,69.59 C45.27,69.59 48.07,69.68 50.99,70.55 C54.22,71.51 56.01,73.15 56.01,73.15 C56.01,73.15 50.25,88.64 47.09,97.61 C43.93,106.58 39.37,118.48 38.26,118.91 C37.15,119.34 35.22,115.89 34.02,113.16 C32.82,110.43 28.73,95.91 28.47,96.17 C28.21,96.43 13.32,98.51 13.32,98.51 Z" fill="#FF605E"/>
  <path d="M74.89,74.1 C74.89,74.1 77.4,72.41 79.45,71.72 C81.5,71.04 85.13,70.46 85.13,70.46 C85.13,70.46 87.31,74.72 89.01,77.63 C90.72,80.53 93.5,86.51 95.29,85.65 C97.08,84.8 94.78,78.76 93.45,76.09 C92.24,73.66 90.12,70.37 90.12,70.37 C90.12,70.37 92.77,70.03 97.63,70.97 C102.5,71.91 104.8,73.53 104.8,73.53 C104.8,73.53 109.3,80.21 111.72,84.29 C114.94,89.73 118.98,98.97 118.98,98.97 L101.13,100.43 L92.16,120.07 C92.16,120.07 90.92,120.15 90.23,119.73 C89.55,119.3 86.32,110.43 84.57,105.23 C81.82,97.02 74.89,74.1 74.89,74.1 Z" fill="#FF605E"/>
  <path d="M100.1,98.73 C99.41,99.37 92.74,115.94 92.54,116.43 C91.51,118.97 90.1,119.55 90.1,119.55 C90.1,119.55 91.31,121.29 93.36,120.69 C94.94,120.23 102.46,102.42 102.46,102.42 C102.46,102.42 116.05,102.55 118.03,101.69 C120.25,100.73 118.95,98.92 118.95,98.92 C118.95,98.92 101.02,97.87 100.1,98.73 Z" fill="#DC0D28"/>
  <path d="M13.35,98.13 C13.35,98.13 17.37,97.4 21.07,96.42 C24.77,95.44 29.51,94.05 29.51,94.05 C29.51,94.05 33.25,104.27 34.37,107.7 C35.49,111.13 38.41,118.8 38.41,118.8 C38.41,118.8 37.14,120.17 35.31,119.04 C33.6,117.98 30.33,108.94 29.47,106.54 C28.37,103.5 26.94,98.99 26.94,98.99 C26.94,98.99 23.06,100.28 19.83,100.87 C16.6,101.46 14.41,101.89 13.55,101.03 C12.69,100.18 13.35,98.13 13.35,98.13 Z" fill="#DC0D28"/>
  <path d="M46.36,28.97 L27.81,24.21 L14.7,34.87 L9.26,60.87 L12.23,65.87 C12.23,65.87 15.45,68.33 24.51,66.31 C33.57,64.28 54.03,56.4 54.03,56.4 C54.03,56.4 56.64,57.48 58.98,57.8 C61.32,58.12 65.31,57.28 65.31,57.28 C65.31,57.28 70.33,58.1 73.32,57.89 C76.3,57.68 77.58,57.36 77.58,57.36 C77.58,57.36 87.39,62.58 97.19,65.35 C106.99,68.12 114.56,68.75 116.27,68.55 C118.93,68.23 120.21,63.75 120.21,63.75 L119.14,53.94 L104.86,23.24 L75.12,31.77 L73.31,33.8 L65.52,31.68 L54.95,33.76 L53.62,32.2 L46.36,28.97 Z" fill="#DC0D28"/>
  <path d="M54.59,33.37 C54.59,33.37 55.77,29.71 64.66,29.71 C72.95,29.71 74.07,32.99 74.07,32.99 C74.07,32.99 75.15,40.19 74.17,46.43 C73.3,52.01 70.21,57.84 70.21,57.84 C70.21,57.84 68.16,58.35 64.99,58.44 C62,58.52 58.82,57.77 58.82,57.77 C58.82,57.77 56,52.8 54.81,46.56 C53.67,40.52 54.59,33.37 54.59,33.37 Z" fill="#FF605E"/>
  <path d="M59.9,45.07 C61.6,45.41 62.57,40.84 63.64,39.59 C65.32,37.64 69.3,38.02 69.23,35.41 C69.18,33.35 61.6,32.4 58.87,36.22 C56.97,38.89 57.19,44.53 59.9,45.07 Z" fill="#FCC4BF"/>
  <path d="M75.11,31.77 C75.11,31.77 76.24,33.15 77.24,35.63 C77.98,37.45 78.78,40.11 78.78,40.11 C78.78,40.11 82.46,36.9 85.61,35.16 C88.75,33.42 103.76,28.09 104.15,35.36 C104.46,41.27 93.4,41.15 88.21,43.26 C84.56,44.74 79.59,47.54 79.59,47.54 L79.59,53.56 C79.59,53.56 81.99,56.12 87.61,56.59 C93.23,57.06 107.64,56.89 110.48,57.01 C116.39,57.26 118.46,59.91 118.46,63.06 C118.46,66.2 117.35,67.49 117.72,67.9 C118.2,68.44 120.67,66.47 122.01,61.38 C123.35,56.29 124.38,46.78 123.98,38.63 C123.51,29 121.61,16.11 117.31,13.71 C113.01,11.31 100.47,14.51 93.11,17.66 C80.73,22.96 75.11,31.77 75.11,31.77 Z" fill="#FF605E"/>
  <path d="M50.37,39.74 C50.37,39.74 50.83,37.37 51.7,35.49 C52.38,34.02 53.63,32.21 53.63,32.21 C53.63,32.21 51.27,26.06 42.58,21.07 C33.89,16.08 15.71,12.18 9.92,14.38 C7.04,15.47 4.25,22.86 3.4,34.08 C2.67,43.82 3.63,55.48 6.7,61.23 C9.01,65.56 14.87,68.78 16.65,67 C17.52,66.13 10.88,63.11 17.21,59.13 C20.88,56.83 27.9,57.03 33.99,56.63 C40.08,56.23 42.68,56.53 45.88,55.73 C49.08,54.93 51.07,53.73 51.07,53.73 C51.07,53.73 50.32,51.23 50.17,50.03 C49.96,48.39 49.83,47.05 49.83,47.05 C49.83,47.05 47.72,45.86 42.18,44.94 C36.75,44.03 27.83,44.23 27.7,38.25 C27.53,30.66 36.29,32.56 40.38,34.25 C44.47,35.94 49.87,39.24 50.37,39.74 Z" fill="#FF605E"/>
</svg>
